src/resources/sprites/construction.svg

<?xml version="1.0" encoding="utf-8"?>
<!-- Generated by IcoMoon.io -->
<!DOCTYPE svg PUBLIC "-//W3C//DTD SVG 1.1//EN" "http://www.w3.org/Graphics/SVG/1.1/DTD/svg11.dtd">
<svg version="1.1" xmlns="http://www.w3.org/2000/svg" xmlns:xlink="http://www.w3.org/1999/xlink" width="20" height="20" viewBox="0 0 20 20">
<path fill="#000000" d="M20 5v-1.5c0-0.276-0.224-0.5-0.5-0.5h-3.5c-0 0-0 0-0 0h-5c-0 0-0 0-0 0h-5c-0 0-0 0-0 0h-5.5c-0.276 0-0.5 0.224-0.5 0.5v6c0 0.276 0.224 0.5 0.5 0.5h1.5v6h-0.5c-0.276 0-0.5 0.224-0.5 0.5s0.224 0.5 0.5 0.5h4c0.276 0 0.5-0.224 0.5-0.5s-0.224-0.5-0.5-0.5h-0.5v-3h10v3h-0.5c-0.276 0-0.5 0.224-0.5 0.5s0.224 0.5 0.5 0.5h4c0.276 0 0.5-0.224 0.5-0.5s-0.224-0.5-0.5-0.5h-0.5v-6h1.5c0.276 0 0.5-0.224 0.5-0.5v-4.5c0-0 0-0 0-0zM19 4.793l-4.207 4.207h-3.586l5-5h2.793v0.793zM6.207 9l5-5h3.586l-5 5h-3.586zM1.207 9l5-5h3.586l-5 5h-3.586zM4.793 4l-3.793 3.793v-3.793h3.793zM3 16v-6h1v6h-1zM5 12v-2h10v2h-10zM17 16h-1v-6h1v6zM16.207 9l2.793-2.793v2.793h-2.793z"></path>
</svg>

<svg xmlns="http://www.w3.org/2000/svg" width="20" height="20"><path d="M20 5V3.5a.5.5 0 0 0-.5-.5H.5a.5.5 0 0 0-.5.5v6a.5.5 0 0 0 .5.5H2v6h-.5a.5.5 0 0 0 0 1h4a.5.5 0 0 0 0-1H5v-3h10v3h-.5a.5.5 0 0 0 0 1h4a.5.5 0 0 0 0-1H18v-6h1.5a.5.5 0 0 0 .5-.5V5zm-1-.207L14.793 9h-3.586l5-5H19v.793zM6.207 9l5-5h3.586l-5 5H6.207zm-5 0l5-5h3.586l-5 5H1.207zm3.586-5L1 7.793V4h3.793zM3 16v-6h1v6H3zm2-4v-2h10v2H5zm12 4h-1v-6h1v6zm-.793-7L19 6.207V9h-2.793z"/></svg>
